wp-content/themes/sd-accesslasers/public/images/application/icons/application-4.svg

<?xml version="1.0" encoding="UTF-8"?>
<svg width="120px" height="120px" viewBox="0 0 120 120" version="1.1" xmlns="http://www.w3.org/2000/svg" xmlns:xlink="http://www.w3.org/1999/xlink">
    <!-- Generator: Sketch 55 (78076) - https://sketchapp.com -->
    <title>4</title>
    <desc>Created with Sketch.</desc>
    <g id="Home" stroke="none" stroke-width="1" fill="none" fill-rule="evenodd">
        <g id="AL_Home-Copy" transform="translate(-343.000000, -2445.000000)" fill="currentColor" fill-rule="nonzero">
            <g id="Features" transform="translate(195.000000, 1665.000000)">
                <g id="Icons">
                    <g id="4" transform="translate(9.000000, 710.000000)">
                        <g id="icon" transform="translate(139.000000, 70.000000)">
                            <g id="plasma" transform="translate(8.000000, 8.000000)">
                                <path d="M52,94.109375 C50.8162109,94.109375 49.8515625,95.0740234 49.8515625,96.2578125 C49.8515625,97.4416016 50.8162109,98.40625 52,98.40625 C53.1837891,98.40625 54.1484375,97.4416016 54.1484375,96.2578125 C54.1484375,95.0740234 53.1837891,94.109375 52,94.109375 Z" id="Path"></path>
                                <path d="M52,59.734375 C50.8140625,59.734375 49.8515625,60.696875 49.8515625,61.8828125 C49.8515625,63.06875 50.8140625,64.03125 52,64.03125 C53.1859375,64.03125 54.1484375,63.06875 54.1484375,61.8828125 C54.1484375,60.696875 53.1859375,59.734375 52,59.734375 Z" id="Path"></path>
                                <path d="M52,68.328125 C50.8140625,68.328125 49.8515625,69.290625 49.8515625,70.4765625 C49.8515625,71.6625 50.8140625,72.625 52,72.625 C53.1859375,72.625 54.1484375,71.6625 54.1484375,70.4765625 C54.1484375,69.290625 53.1859375,68.328125 52,68.328125 Z" id="Path"></path>
                                <path d="M100.644141,9.35668945 C97.6413867,6.18700195 93.4746094,4.51171875 88.59375,4.51171875 C83.514375,4.51171875 80.7776074,5.44892578 78.3628125,6.27600586 C76.3073145,6.98003906 74.5321582,7.58789062 71.3671875,7.58789062 C68.467793,7.58789062 67.1897461,6.12855469 65.5714746,4.28100586 C63.9009082,2.3737793 61.8220313,0 57.8320312,0 C53.7610254,0 50.4492188,3.31180664 50.4492188,7.3828125 L50.4492188,10.6640625 L46.3476562,10.6640625 C45.2150098,10.6640625 44.296875,11.5821973 44.296875,12.7148438 L44.296875,18.8671875 L2.05078125,18.8671875 C0.918134766,18.8671875 0,19.7853223 0,20.9179688 L0,102.949219 C0,104.081865 0.918134766,105 2.05078125,105 L102.949219,105 C104.081865,105 105,104.081865 105,102.949219 L105,20.9179688 C105,16.4277832 103.453096,12.3219141 100.644141,9.35668945 Z M54.5507812,7.3828125 C54.5507812,5.57361328 56.022832,4.1015625 57.8320312,4.1015625 C59.8672266,4.1015625 60.8274023,5.08962891 62.4860742,6.98332031 C64.3223438,9.08003906 66.6077344,11.6894531 71.3671875,11.6894531 C75.2150684,11.6894531 77.4908203,10.9099512 79.6917187,10.1562891 C82.0088965,9.3628418 84.1972852,8.61328125 88.59375,8.61328125 C96.1416504,8.61328125 99.9844043,13.4869629 100.751191,18.8671875 L60.703125,18.8671875 L60.703125,12.7148438 C60.703125,11.5821973 59.7849902,10.6640625 58.6523437,10.6640625 L54.5507812,10.6640625 L54.5507812,7.3828125 Z M48.3984375,14.765625 L56.6015625,14.765625 L56.6015625,18.8671875 L48.3984375,18.8671875 L48.3984375,14.765625 Z M54.5507812,22.96875 L54.5507812,27.0703125 L50.4492188,27.0703125 L50.4492188,22.96875 L54.5507812,22.96875 Z M48.3984375,31.171875 L56.6015625,31.171875 L62.7539062,31.171875 L62.7539062,35.2734375 L60.703125,35.2734375 L44.296875,35.2734375 L42.2460938,35.2734375 L42.2460938,31.171875 L48.3984375,31.171875 Z M85.3125,76.2890625 L19.6875,76.2890625 C18.5548535,76.2890625 17.6367188,77.2071973 17.6367188,78.3398438 L17.6367188,84.4921875 L12.3046875,84.4921875 L12.3046875,31.171875 L38.1445312,31.171875 L38.1445312,37.3242188 C38.1445312,38.4568652 39.062666,39.375 40.1953125,39.375 L42.2460938,39.375 L42.2460938,45.5273438 C42.2460938,46.6599902 43.1642285,47.578125 44.296875,47.578125 L50.4492188,47.578125 L50.4492188,53.7304688 C50.4492188,54.8631152 51.3673535,55.78125 52.5,55.78125 C53.6326465,55.78125 54.5507812,54.8631152 54.5507812,53.7304688 L54.5507812,47.578125 L60.703125,47.578125 C61.8357715,47.578125 62.7539062,46.6599902 62.7539062,45.5273438 L62.7539062,39.375 L64.8046875,39.375 C65.937334,39.375 66.8554688,38.4568652 66.8554688,37.3242188 L66.8554688,31.171875 L92.6953125,31.171875 L92.6953125,84.4921875 L87.3632812,84.4921875 L87.3632812,78.3398438 C87.3632812,77.2071973 86.4451465,76.2890625 85.3125,76.2890625 Z M83.2617188,80.390625 L83.2617188,84.4921875 L21.7382812,84.4921875 L21.7382812,80.390625 L83.2617188,80.390625 Z M46.3476562,43.4765625 L46.3476562,39.375 L58.6523438,39.375 L58.6523438,43.4765625 L46.3476562,43.4765625 Z M4.1015625,22.96875 L46.3476562,22.96875 L46.3476562,27.0703125 L10.2539062,27.0703125 C9.12125977,27.0703125 8.203125,27.9884473 8.203125,29.1210938 L8.203125,84.4921875 L4.1015625,84.4921875 L4.1015625,22.96875 Z M20.5078125,100.898438 L4.1015625,100.898438 L4.1015625,96.796875 L20.5078125,96.796875 L20.5078125,100.898438 Z M100.898438,100.898438 L84.4921875,100.898438 L84.4921875,96.796875 L100.898438,96.796875 L100.898438,100.898438 Z M100.898438,92.6953125 L60.703125,92.6953125 C59.5731445,92.6953125 58.6523438,93.6161133 58.6523438,94.7460938 C58.6523438,95.8760742 59.5731445,96.796875 60.703125,96.796875 L80.390625,96.796875 L80.390625,100.898438 L24.609375,100.898438 L24.609375,96.796875 L44.296875,96.796875 C45.4268555,96.796875 46.3476562,95.8760742 46.3476562,94.7460938 C46.3476562,93.6161133 45.4268555,92.6953125 44.296875,92.6953125 L4.1015625,92.6953125 L4.1015625,88.59375 L100.898438,88.59375 L100.898438,92.6953125 Z M100.898438,84.4921875 L96.796875,84.4921875 L96.796875,29.1210938 C96.796875,27.9884473 95.8787402,27.0703125 94.7460938,27.0703125 L58.6523438,27.0703125 L58.6523438,22.96875 L100.898438,22.96875 L100.898438,84.4921875 Z" id="Shape"></path>
                            </g>
                        </g>
                    </g>
                </g>
            </g>
        </g>
    </g>
</svg>

<svg width="120" height="120" viewBox="0 0 120 120" version="1.1" xmlns="http://www.w3.org/2000/svg"><g id="Home" stroke="none" stroke-width="1" fill="none" fill-rule="evenodd"><g id="AL_Home-Copy" transform="translate(-343 -2445)" fill="currentColor" fill-rule="nonzero"><g id="Features" transform="translate(195 1665)"><g id="Icons"><g id="4" transform="translate(9 710)"><g id="icon" transform="translate(139 70)"><g id="plasma" transform="translate(8 8)"><path d="M52 94.11a2.152 2.152 0 0 0-2.148 2.148c0 1.184.964 2.148 2.148 2.148a2.152 2.152 0 0 0 2.148-2.148A2.152 2.152 0 0 0 52 94.109zm0-34.376a2.15 2.15 0 1 0 .002 4.299A2.15 2.15 0 0 0 52 59.734zm0 8.594a2.15 2.15 0 1 0 .002 4.299A2.15 2.15 0 0 0 52 68.328z" id="Path"/><path d="M100.644 9.357c-3.003-3.17-7.17-4.845-12.05-4.845-5.08 0-7.816.937-10.231 1.764-2.056.704-3.83 1.312-6.996 1.312-2.9 0-4.177-1.46-5.796-3.307C63.901 2.374 61.822 0 57.832 0c-4.071 0-7.383 3.312-7.383 7.383v3.281h-4.101a2.05 2.05 0 0 0-2.051 2.05v6.153H2.05A2.05 2.05 0 0 0 0 20.918v82.031A2.05 2.05 0 0 0 2.05 105h100.9a2.05 2.05 0 0 0 2.05-2.05V20.917c0-4.49-1.547-8.596-4.356-11.561zM54.551 7.383a3.285 3.285 0 0 1 3.281-3.281c2.035 0 2.995.988 4.654 2.881 1.836 2.097 4.122 4.706 8.881 4.706 3.848 0 6.124-.779 8.325-1.533 2.317-.793 4.505-1.543 8.902-1.543 7.548 0 11.39 4.874 12.157 10.254H60.703v-6.152a2.05 2.05 0 0 0-2.05-2.05H54.55V7.382zm-6.153 7.383h8.204v4.101h-8.204v-4.101zm6.153 8.203v4.101h-4.102v-4.1h4.102zm-6.153 8.203h14.356v4.101H42.247v-4.101h6.151zm36.914 45.117H19.689a2.05 2.05 0 0 0-2.051 2.05v6.153h-5.332v-53.32h25.84v6.152a2.05 2.05 0 0 0 2.05 2.051h2.051v6.152a2.05 2.05 0 0 0 2.05 2.051h6.153v6.152a2.05 2.05 0 1 0 4.102 0v-6.152h6.152a2.05 2.05 0 0 0 2.05-2.05v-6.153h2.052a2.05 2.05 0 0 0 2.05-2.05v-6.153h25.84v53.32h-5.332V78.34a2.05 2.05 0 0 0-2.05-2.05zm-2.05 4.102v4.101H21.738v-4.101h61.524zM46.348 43.477v-4.102h12.304v4.102H46.348zM4.102 22.969h42.246v4.101H10.254a2.05 2.05 0 0 0-2.05 2.051v55.371H4.101V22.97zm16.406 77.93H4.102v-4.102h16.406v4.101zm80.39 0H84.492v-4.102h16.406v4.101zm0-8.204H60.703c-1.13 0-2.05.921-2.05 2.051 0 1.13.92 2.05 2.05 2.05h19.688v4.102H24.609v-4.101h19.688c1.13 0 2.05-.92 2.05-2.05s-.92-2.052-2.05-2.052H4.102v-4.101h96.796v4.101zm0-8.203h-4.101v-55.37a2.05 2.05 0 0 0-2.05-2.052H58.651v-4.1h42.246v61.523z" id="Shape"/></g></g></g></g></g></g></g></svg>
